!!!!SEGMENT: pl-wtm--mus-iii-40-225--001-001_fitelberg-grzegorz--preludyum-i-piesn-op-19-preludyum.krn
!!!cenid: 19xx:88
!!!COM: Fitelberg, Grzegorz
!!!COM-rismID: pe41023683
!!!CDT: 1879-1953
!!!CNT: Polish
!!!OPR: Preludyum i pieśń op. 19
!!!OTL: Preludyum
!!!OMV: 001
!!!PDT: 1906
!!!AGN: Secular; Prelude
!!!YEC: Copyright 2022 Narodowy Instytut Fryderyka Chopina (https://polishscores.org)
!!!YEM: License CC-BY-4.0 (https://creativecommons.org/licenses/by/4.0)
!!!SMS-siglum: PL-Wtm
!!!SMS-shelfmark: Mus.III.40.225
!!!SMS-variant:
!!!SMS-altvar:
!!!SMS-shelfwork: 001-001 M
!!!NIFC-rismSourceID: 1001123411
!!!NIFC-rismChildID: 1001123413
!!!NIFC-islandoraID: pl-wtm:8316
!!!URL-pdf-islandora: https://repozytorium.nifc.pl/islandora/object/pl-wtm%3A8316/datastream/PDF/view
!!!URL-scan: https://polish.musicsources.pl/pl/lokalizacje/galeria/druki-muzyczne/16121/2 @EN{Scan on Polish Music Sources Website} @PL{Skany w portalu Dziedzictwo Muzyki Polskiej w otwartym dostępie}
!!!IIIF:
!!!ONB-nifc: UWAGA: Części: 1. Preludyum, 2. Pieśń
!!!AIN: 1 piano
!!!key:
**kern	**kern	**dynam
*part1	*part1	*part1
*staff2	*staff1	*
*I"Pianoforte.	*I"Pianoforte.	*
*I'[pf]	*I'[pf]	*
*ICklav	*ICklav	*
*Ipiano	*Ipiano	*
*clefF4	*clefG2	*
*k[]	*k[]	*
*d:	*d:	*
*M4/4	*M4/4	*
(8EEE-X/	8ryy	pp
=1	=1	=1
*^	*	*
*	*^	*	*
*	*	*^	*	*
!!LO:TX:t=P:problem: metrum zapisane jako 4	!	!	!	!	!
!	!	!	!	!LO:TX:b:i:t=e molto legato	!
2..EE-X/)	8r	4ryy	2ryy	2ryy	.
.	(>[8BB/	.	.	.	.
.	2.BB/] 2.B)	8ryy	.	.	.
.	.	([<8F\	.	.	.
.	.	2F\] 2f)	8ryy	4ryy	.
.	.	.	(>[8D-X/	.	.
.	.	.	4D-/] 4d-X)	8ryy	.
(<8EEE-X/	.	.	.	(8G/	.
=2	=2	=2	=2	=2	=2
*	*	*	*	*^	*
*	*	*	*	*	*^	*
*	*	*	*	*	*	*^	*
2..EE-X/)	8r	4ryy	2ryy	2..g/)	4ryy	2ryy	2ryy	.
.	N(>[8BB/	.	.	.	.	.	.	.
.	2.BB/]	8ryy	.	.	2.B/N)	.	.	.
.	.	N(>[<8F/	.	.	.	.	.	.
.	.	2F/]	8ryy	.	.	2f/N)	4ryy	.
.	.	.	N(>[8D-X/	.	.	.	.	.
.	.	.	4D-/]	.	.	.	4d-X/N)	.
(<8EEEn/	.	.	.	(<8G/	.	.	.	.
=3	=3	=3	=3	=3	=3	=3	=3	=3
2..EEn/)	8r	4ryy	2ryy	2..g/)	4ryy	2ryy	2ryy	.
.	N(>[8BB/	.	.	.	.	.	.	.
.	2.BB/]	8ryy	.	.	2.B/N)	.	.	.
.	.	N(>[<8F/	.	.	.	.	.	.
.	.	2F/]	8ryy	.	.	2f/N)	4ryy	.
.	.	.	N(>[8Dn/	.	.	.	.	.
.	.	.	4D/]	.	.	.	4dn/N)	.
(<8EEE/	.	.	.	(<8G#X/	.	.	.	.
!!LO:LB:g=original	!	!	!	!	!	!	!	!
=4	=4	=4	=4	=4	=4	=4	=4	=4
2..EE/)	8r	4ryy	2ryy	2..g#X/)	4ryy	2ryy	2ryy	.
.	N(>[8BB-X/	.	.	.	.	.	.	.
.	2.BB-/]	8ryy	.	.	2.B-X/N)	.	.	.
.	.	N(>[<8F#X/	.	.	.	.	.	.
.	.	2F#/]	8ryy	.	.	2f#X/N)	4ryy	.
.	.	.	N(>[8D/	.	.	.	.	.
.	.	.	4D/]	.	.	.	4d/N)	.
(<8EEE/	.	.	.	(<8G#X/	.	.	.	.
*	*v	*v	*v	*	*	*	*	*
=5	=5	=5	=5	=5	=5	=5
!	!	!LO:TX:i:a:t=espressivo	!	!	!	!
8r	[1EE)	(2..g#X/)	4ryy	2ryy	2ryy	.
N(>8BB-X/	.	.	.	.	.	.
8ryy	.	.	2.B-X/N)	.	.	.
N(>8F#X/	.	.	.	.	.	.
8ryy	.	.	.	[2f#X~>/N)	4ryy	.
N(>8D/	.	.	.	.	.	.
4ryy	.	.	.	.	[4d/N) 4a	.
.	.	8ryy	.	.	.	.
*	*	*	*	*v	*v	*
=6	=6	=6	=6	=6	=6
!	!	!	!	!LO:TX:b:Bi:t=crescendo_ :problem:dynamics with line extensions	!LO:HP:t=crescendo_
(2An/	2..EE\]	4a#X/	(2f#/]	1d]	<
.	.	2b/	.	.	.
2G#X/)	.	.	2fn~>/)	.	.
.	.	4b#/)	.	.	.
.	[8AAA/	.	.	.	.
*v	*v	*	*	*	*
*	*v	*v	*v	*
=7	=7	=7
*M5/4	*M5/4	*
*^	*^	*
!	!	!	!	!LO:DY:b
!	!	!	!	!LO:HP:a
(2.B-X/	1AAA]	(>4.e~/ (4.dd 4.dd	[2g\	mf >
.	.	[<4.d#X/ N[<4.cc#X N[>4.dd#X	.	.
.	.	.	2g\] 2cc#N]	.
*Xbrackettup	*	*	*	*
6A/	.	4d#/] 4dd#N]	.	.
6G/	.	.	.	.
.	4r	4e/) 4ee)	4r	]
6F/)	.	.	.	.
*v	*v	*	*	*
*	*v	*v	*
!!LO:LB:g=original	!	!
=8	=8	=8
*M4/4	*M4/4	*
*^	*^	*
*	*^	*	*	*
!	!	!	!LO:TX:a:i:t=poco affetando_	!	!
!	!	!	!LO:TX:a:Bi:t=poco affetando_:problem:dynamics with line extensions	!	!
2.B-X/ 2.c#X 2.f	(<4.E\	4r	(>4.f/ (>4.ff	2.b-X\ 2.cc#X	.
.	.	[<2.AAA/	.	.	.
.	4.F\)	.	4.g/) 4.gg)	.	.
!	!	!	!	!	!LO:HP:a
[4c#/ [4e [4g#X	([4F##X\	.	(<[<4g#X/ (>[4gg#X	[4cc#\ [>4ee	>
=9	=9	=9	=9	=9	=9
2c#/] 2e] 2g#]	8F##\]	1AAA]	8g#/] 8gg#]	2cc#\] 2ee]	.
.	4.G#X\)	.	4.a#X/) 4.aa#X)	.	]
!	!	!	!	!	!LO:HP:b=2
[2e/ [2gn [2b	4.A#X^\	.	(<4.b/ (>4.bb	[2ee\ [2ggn	<
.	[>8Bn^\	.	[<8b-X/ [8bb-X	.	.
*v	*v	*v	*	*	*
*	*v	*v	*
=10	=10	=10
*M2/4	*M2/4	*
*^	*^	*
*	*^	*	*	*
!	!	!	!LO:TX:a:i:t=rit.	!	!LO:DY:b=2
2e/_< 2g_>	(<4B\] (>4b]	4ryy	2b-X/_<) 2bb-X_)	2ee\_< 2gg_>	[ f
.	[<4c^\) [>4cc)	8ryy	.	.	.
.	.	([<8AAA^</	.	.	.
*v	*v	*v	*	*	*
*	*v	*v	*
=11	=11	=11
*M4/4	*M4/4	*
*^	*^	*
*	*^	*	*^	*
*	*	*^	*	*	*	*
!	!	!	!	!LO:TX:a:i:t=a tempo	!	!	!
8c\] 8e] 8g] 8cc]	8ryy	1AAA^<_< [<1AA)	4ryy	8b-/] 8bb-]	8ee\] 8gg]	2ryy	.
!LO:TX:a:i:t=espressivo	!	!	!	!	!	!	!
(4G/	[2.G\	.	.	8r	8ryy	.	.
!	!	!	!	!	!	!	!LO:HP:a
.	.	.	4ryy	(4g/	[2.g\	.	<
[2e/)	.	.	.	.	.	.	.
.	.	.	8ryy	[2ee/)	.	4ryy	[
.	.	.	[4.c\	.	.	.	.
.	.	.	.	.	.	[<4cc\	f
8e/_	8G\]	.	.	.	.	.	.
=12	=12	=12	=12	=12	=12	=12	=12
*	*	*	*	*	*	*^	*
*	*	*	*	*	*	*	*	*^
*	*^	*	*	*	*	*	*	*	*
!	!	!	!	!	!	!	!	!LO:TX:b:Bi:t=crescendo_ :problem:dynamics with line extensions	!LO:HP:a:t=crescendo_	!LO:HP:b:t=crescendo_
!	!	!	!	!	!	!	!	!LO:TX:a:Bi:t=crescendo_ :problem:dynamics with line extensions	!	!
2e/_	8c\]	8ryy	1G	2..AAA/] 2..AA]	2.ee/]	4cc\]	4ryy	1g]	<	<
!	!	!LO:N:vis=4	!	!	!	!	!	!	!	!
.	N[2c#X\	(>4.c#X/	.	.	.	.	.	.	.	.
.	.	.	.	.	.	(>4cc#X/	2cc#\	.	.	.
!	!	!LO:TX:t=P:problem: voice leading line	!	!	!	!	!	!	!	!
8e/]	.	2b-)	.	.	.	4.bb-X/)	.	.	.	.
4.e#X^/	8ryy	.	.	.	.	.	.	.	.	.
.	8ryy	.	.	.	4ee#X^/	.	4ryy	.	.	.
*ped	*	*	*	*	*	*	*	*	*	*
!	!	!	!	!	!	!	!	!	!LO:DY:a	!LO:DY:b=2
.	8c#\N]	.	.	8DDD^</ 8DD	.	8b-X/ 8bb-	.	.	f	f
*	*v	*v	*	*	*	*	*	*	*	*
*	*	*	*	*	*	*	*	*v	*v
*v	*v	*v	*v	*	*	*	*	*
*	*v	*v	*v	*v	*
*clefG2	*	*
!!LO:LB:g=original	!	!
=13	=13	=13
*^	*^	*
!	!	!LO:TX:a:i:t=poco affretando_	!	!
!	!	!LO:TX:a:Bi:t=poco affretando_:problem: with line extensions	!	!
2.e-X/ 2.f#X 2.b-X	(<4.A\	(>4.b-X/ (>4.bb-X	2ee-X\ 2ff#X	>
.	4.B-X\)	4.cc/) 4.ccc)	.	]
.	.	.	4ryy	.
[4f#/ [4a [4cc#X	([4B#X\	(<[<4cc#X/ (>[>4ccc#X	[4ff#\ [>4aa	>
=14	=14	=14	=14	=14
*	*	*	*	*^
2f#/] 2a] 2cc#]	8B#\]	8cc#X/] 8ccc#X]	2ff#\] 2aa]	.	.
.	4.c#X\)	4.dd#X/) 4.ddd#X)	.	]	.
!	!	!	!	!LO:HP:a	!LO:HP:b=2
[2a/ [2ccn [2ee	(4.d#X^\	4.ee/ (4.eee	[2aa\ [>2cccn	>	<
.	[8en^\	8ee-X/ (8eee-X	.	.	.
*v	*v	*	*	*	*
*	*v	*v	*	*
=15	=15	=15	=15
*M2/4	*M2/4	*	*
*^	*^	*	*
*	*^	*	*	*	*
!	!	!	!LO:TX:a:i:t=rit.	!	!	!
2a/N_< 2ccN_<	(4e\]) (4ee]	4ryy	[<2ee/ [>2eee))	[<2aa\] [>2ccc]	]	.
.	N[<4f^<\) N[>4ff^>)	8ryy	.	.	.	[
*clefF4	*	*	*	*	*	*
.	.	[<8DD/	.	.	.	.
*	*	*	*	*	*v	*v
*v	*v	*v	*	*	*
*	*v	*v	*
!!LO:PB:g=original	!	!
=16	=16	=16
*M4/4	*M4/4	*
*^	*^	*
*	*^	*	*^	*
*	*	*^	*	*	*	*
1DD^] 1D	8ryy	8ryy	8ryy	8ee/] 8aa] 8ccc] 8eee]	8f\N] 8aN] 8ccN] 8ffN]	2ryy	.
*clefG2	*	*	*	*	*	*	*
!	!	!	!	!LO:TX:b:i:t=espressivo	!	!	!
.	(>4c/	4ryy	[2.c\	8r	8ryy	.	<
!	!	!	!	!	!	!	!LO:HP:a
.	.	.	.	(4cc/	[2.cc\	.	[[ <
.	[>2a/)	8ryy	.	.	.	.	.
.	.	N[<4.f\	.	[2aa/)	.	4ryy	[
.	.	.	.	.	.	[<4ff\	.
.	8a/_>	8ryy	8c\_	.	.	.	.
=17	=17	=17	=17	=17	=17	=17	=17
!	!	!	!	!	!	!LO:TX:b:Bi:t=crescendo_ :problem:dynamics with line extensions	!LO:HP:t=crescendo_
1c]	2a/_>	8ryy	8f\N]	2.aa/]	1cc]	4ff\]	<
.	.	(4f#X/	[2.f#\	.	.	.	.
*	*	*	*	*	*	*^	*
!	!	!	!	!	!	!	!	!LO:HP:a
.	.	.	.	.	.	(>4ff#X/	2.ff#\	<
!	!	!LO:TX:t=P:problem: voice leading line	!	!	!	!	!	!
.	.	2ee-X/)	.	.	.	.	.	.
.	8a/]	.	.	.	.	4eee-X/)	.	[
.	4.a#X^>/	.	.	.	.	.	.	.
.	.	.	.	4aa#X^/	.	8ryy	.	.
.	.	8ryy	8f#\]	.	.	8ee-X^/ 8eee-	.	.
*	*	*	*	*	*	*v	*v	*
*	*	*	*	*v	*v	*v	*
*clefF4	*	*	*	*	*
=18	=18	=18	=18	=18	=18
*	*	*	*	*^	*
*	*	*	*	*	*^	*
*	*	*	*	*	*	*^	*
[<\1GGG^< [<\1GG	8r	4ryy	2ryy	[>1ee-X^ [>1eee-X	4ryy	2ryy	2ryy	ff
.	N(>[8E-X/	.	.	.	.	.	.	.
.	2.E-/]	8ryy	.	.	2.e-X/N)	.	.	.
.	.	N(>[<8A/	.	.	.	.	.	.
.	.	2A/]	8ryy	.	.	2a/N)	4ryy	.
.	.	.	N(>[8F/	.	.	.	.	.
!	!	!	!	!	!	!	!LO:N:vis=4	!
.	.	.	4F/]	.	.	.	8f/N)	.
.	.	.	.	.	.	.	(8B/	.
!LO:LB:g=original	!	!	!	!	!	!	!	!
=19	=19	=19	=19	=19	=19	=19	=19	=19
*	*	*	*	*^	*	*	*	*
2..GGG]/ 2..GG]	8r	4ryy	2ryy	1ee-X] 1eee-X]	2..b/)	4ryy	2ryy	2ryy	.
.	N(>[8E-X/	.	.	.	.	.	.	.	.
.	2.E-/]	8ryy	.	.	.	2.e-X/N)	.	.	.
.	.	N(>[<8A/	.	.	.	.	.	.	.
.	.	2A/]	8ryy	.	.	.	2a/N)	4ryy	.
.	.	.	N(>[8F/	.	.	.	.	.	.
!	!	!	!	!	!	!	!	!LO:N:vis=4	!
.	.	.	4F/]	.	.	.	.	8f/N)	.
[<8GGG#/ [8GG#	.	.	.	.	8ryy	.	.	(<8B/	.
.	.	.	.	.	.	.	.	[16qqb/LL	.
.	.	.	.	.	.	.	.	[16qqee-X/JJ	.
=20	=20	=20	=20	=20	=20	=20	=20	=20	=20
2..GGG#/] 2..GG#]	8r	4ryy	2ryy	1ee-X~] 1eee-X	2..b/)]	4ryy	2ryy	2ryy	f
.	N(>[8E-X/	.	.	.	.	.	.	.	.
.	2.E-/]	8ryy	.	.	.	2.e-X/N)	.	.	.
.	.	N(>[<8A/	.	.	.	.	.	.	.
.	.	2A/]	8ryy	.	.	.	2a/N)	4ryy	.
.	.	.	N(>[8F#X/	.	.	.	.	.	.
!	!	!	!	!	!	!	!	!LO:N:vis=4	!
.	.	.	4F#/]	.	.	.	.	8f#X/N)	.
[<8GGG#X/ [8GG#X	.	.	.	.	8ryy	.	.	(<8B#X/	.
.	.	.	.	.	.	.	.	([16qqb#X/LL	.
.	.	.	.	.	.	.	.	[16qqdd/JJ	.
=21	=21	=21	=21	=21	=21	=21	=21	=21	=21
2..GGG#/] 2..GG#]	8r	4ryy	2ryy	2..dd/] 2..ddd~)	2..b#]\)	4ryy	2ryy	2ryy	.
.	N(>[8D/	.	.	.	.	.	.	.	.
!	!	!	!	!	!	!	!	!	!LO:HP:t=dimin.
.	2.D/]	8ryy	.	.	.	2.d/N)	.	.	>
.	.	N(>[<8A#X/	.	.	.	.	.	.	.
.	.	2A#/]	8ryy	.	.	.	2a#X/N)	4ryy	.
.	.	.	N(>[8F#X/	.	.	.	.	.	.
.	.	.	4F#/]	.	.	.	.	4f#X/N)	.
[<(8AAA/	.	.	.	([<8cc#X/	8ryy	.	.	.	.
*	*	*	*	*v	*v	*	*	*	*
!!LO:LB:g=original	!	!	!	!	!	!	!	!
=22	=22	=22	=22	=22	=22	=22	=22	=22
2..AAA/] 2..AA)	8ryy	4ryy	2ryy	2..cc#X~/] 2..ccc#X)	4ryy	2ryy	2ryy	p
.	N(>[8Fn/	.	.	.	.	.	.	.
.	2F/]	8ryy	.	.	2.fn/N)	.	.	.
.	.	N(>[<8B/	.	.	.	.	.	.
.	.	2B/]	8ryy	.	.	2b/N)	4ryy	.
.	.	.	N(>[8G/	.	.	.	.	.
.	4ryy	.	4G/]	.	.	.	4g/N)	.
([<8AAA/	.	.	.	([<8c#X/	.	.	.	.
=23	=23	=23	=23	=23	=23	=23	=23	=23
2..AAA/] 2..AA)	8r	4ryy	2ryy	2..c#~/] 2..cc#X)	4ryy	2ryy	2ryy	.
.	N(>[8F/	.	.	.	.	.	.	.
.	2F/]	8ryy	.	.	2.fn/N)	.	.	.
.	.	N(>[<8B/	.	.	.	.	.	.
.	.	2B/]	8ryy	.	.	2b/N)	4ryy	.
.	.	.	N(>[8G/	.	.	.	.	.
.	4ryy	.	4G/]	.	.	.	4g/N)	.
([<8AAA#X/	.	.	.	(8c#X/	.	.	.	pp
=24	=24	=24	=24	=24	=24	=24	=24	=24
2..AAA#/] 2..AA#X)	8ryy	4ryy	2ryy	2..c#X/ 2..cc#X)	4ryy	2ryy	2ryy	.
.	N(>[8F/	.	.	.	.	.	.	.
.	2F/]	8ryy	.	.	2.f/N)	.	.	.
.	.	N(>[<8B/	.	.	.	.	.	.
.	.	2B/]	8ryy	.	.	2b/N)	4ryy	.
.	.	.	N(>[8G#X/	.	.	.	.	.
.	4ryy	.	4G#/]	.	.	.	4g#X/N)	.
[<(8AAA#X/	.	.	.	([<8c##X/	.	.	.	.
*v	*v	*v	*v	*	*	*	*	*
*	*v	*v	*v	*v	*
!!LO:LB:g=original	!	!
=25	=25	=25
*M5/4	*M5/4	*
*^	*^	*
*	*^	*	*^	*
*	*	*^	*	*	*	*
!	!	!	!	!LO:TX:b:Bi:t=cresc._ :problem:dynamics with line extensions	!	!	!LO:HP:t=cresc._
1AAA#X] 1AA#X)	8r	4ryy	2ryy	2..c##X/] 2..cc##X)	2ryy	2.ryy	<
.	(>[8E\	.	.	.	.	.	.
.	4.E\] 4.e)	8ryy	.	.	.	.	.
.	.	N(>[<8B#X/	.	.	.	.	.
.	.	2.B#/]	8ryy	.	2.b#X/N)	.	.
.	8G#X\L 8g#X	.	N(>[8G#y/	.	.	.	.
.	8Gn\ 8gn	.	2G#/]	.	.	2g#X/N)	.
.	8F#X\ 8f#X	.	.	([<8c##/L	.	.	.
4ryy	8Fn\ 8fn	.	.	(8c##/] (8cc##)	.	.	.
.	8E\J 8e	.	.	8d#X/J) 8dd#X)	.	.	.
*v	*v	*v	*v	*	*	*	*
*	*v	*v	*v	*
=26	=26	=26
*M4/4	*M4/4	*
*^	*^	*
*	*^	*	*^	*
1G#X	2D#X\ 2B#X 2d#X	8r	(>4d##X/ 4dd##X	1g#X	2b#X/	f
.	.	[<8AAA#X^</ [8AA#X	.	.	.	.
.	.	2.AAA#/] 2.AA#]	2e#X/ 2ee#X	.	.	.
.	2C##X\ 2Bn 2c##X	.	.	.	2bn/	.
.	.	.	4f#X/) 4ff#X	.	.	.
=27	=27	=27	=27	=27	=27	=27
1BnX	2D#X\ 2d#X 2f#X	8r	(4f##X/ 4ff##X	1b	2dd#X/	.
.	.	[<8CC#X^</ [8C#X	.	.	.	.
.	.	2.CC#/] 2.C#]	2g#X/ 2gg#X	.	.	.
.	2E#\ 2dn 2e#X	.	.	.	2ddn/	.
.	.	.	4a/) 4aa	.	.	.
*	*	*	*	*v	*v	*
=28	=28	=28	=28	=28	=28
!	!	!	!LO:TX:a:i:t=poco\nlargamente	!	!
!	!	!	!	!LO:TX:b:Bi:t=cresc._ :problem:dynamics with line extensions	!LO:HP:t=cresc._
1ryy	2D#X\ 2An 2d 2f#X 2an	8r	(4a#X/ 4aa#X	2dd\ 2ff#X	<
.	.	[<8EEE^</ [8EE	.	.	.
.	.	2.EEE/] 2.EE]	2b~/ 2bb	.	.
.	2G#X\ 2d 2fn 2g#X	.	.	2dd\ 2ffn	.
!	!	!	!	!	!LO:DY:b=2
.	.	.	4b#X~/) 4bb#X	.	ff
.	[<8qAAA/ [<8qAA	.	.	.	.
*v	*v	*v	*	*	*
*	*v	*v	*
!!LO:LB:g=original	!	!
=29	=29	=29
*M5/4	*M5/4	*
*^	*	*
*	*	*^	*
*	*	*	*^	*
2.B-X/ 2.b-X	1AAA_ 1AA_	4.dd\ 4.ee 4.ddd	2ryy	N[1gg	[ ff
.	.	[<4.cc#X\ [>4.dd#X [<4.ccc#X [>4.ddd#X	.	.	.
.	.	.	4ryy	.	.
6A/ 6a	.	(4dd#/] (>4ddd#]	2cc#\] 2ggN] 2ccc#]	.	.
6G/ 6g	.	.	.	.	.
.	4AAA\] 4AA]	4ee/) 4eee)	.	4ryy	.
6F/ 6f	.	.	.	.	.
*v	*v	*	*	*	*
*	*v	*v	*v	*
=30	=30	=30
*M4/4	*M4/4	*
*^	*^	*
*	*^	*	*	*
*	*	*	*8va	*	*
!	!	!	!	!	!LO:HP:a
2.B-X\ 2.c#X	(>4.E/ (>4.e	8r	2.bb-X\ 2.ccc#X	(>4.ff/ (>4.fff	>
.	.	[<8AAA^</ [8AA	.	.	.
.	.	2.AAA/_< 2.AA_<	.	.	.
.	4.F/) 4.f)	.	.	4.gg/) 4.ggg)	]
!	!	!	!	!	!LO:HP:a
[<4c#\ [<4e	[4F##X/ (>[>4f##X	.	[<4ccc#\ [<4eee	(>4gg#X/ ((4ggg#X	>
=31	=31	=31	=31	=31	=31
2c#\] 2e]	8F##/] 8f##]	1AAA] 1AA]	2ccc#\] 2eee]	8gg/) 8ggg)	.
.	4.G#X/ 4.g#X)	.	.	4.aa#X/ 4.aaa#X)	]
!	!	!	!	!	!LO:HP:b=2
[<2e\ [<2gn	4.A^/ 4.a	.	[<2eee\ [>2ggg	4.bb/ (>4.bbb	<
.	[>8B^/ [>8bn	.	.	[<8bb-X/ [>8bbb-X)	.
*v	*v	*v	*	*	*
*	*v	*v	*
=32	=32	=32
*M2/4	*M2/4	*
*^	*	*
*	*^	*	*
2e\] 2g]	4B/] 4b]	4ryy	2bb-\_ 2eee_ 2ggg_ 2bbb-_	.
.	[>4c^/ [>4cc	8ryy	.	[
.	.	[<8AAA^</	.	.
*v	*v	*v	*	*
!!LO:PB:g=original	!	!
=33	=33	=33
*M4/4	*M4/4	*
*^	*^	*
*	*^	*	*	*
!LO:TX:t=P:problem: w t. 32 brak dwóch ligatur, w t. 33 obecne. Dodatkowo zmiana kierunku ligatury dla 2cc]	!	!LO:TX:t=P:problem: w t. 32 brak ligatury, w t. 33 obecna	!	!	!
2c/] 2e] 2g] 2cc]	8r	1AAA^<] 1AA]	2bb-/] 2eee] 2ggg] 2bbb-]	8r	.
*	*	*	*X8va	*	*
!	!	!	!	!LO:TX:a:i:t=lento	!
.	(8GG^>/L	.	.	(8G^>/L	.
.	8E^>/	.	.	8e^>/	.
.	[8C^>/J)	.	.	[8c^>/J)	.
*	*rscale:4	*	*	*rscale:4	*
*	*Xtuplet	*	*	*Xtuplet	*
4ryy	72%1C\LL]	.	2ryy	72%1c/LL]	.
.	(>72%1C#X\	.	.	(<72%1c#X/	.
.	72%1B-X\	.	.	72%1b-X/	.
.	72%1E#X\	.	.	72%1e#X/	.
.	72%1G\	.	.	72%1g/	.
.	72%1e\	.	.	72%1ee/	.
.	72%1c\	.	.	72%1cc/	.
.	72%1c#X\	.	.	72%1cc#X/	.
*	*clefG2	*	*	*	*
.	72%1b-X\	.	.	72%1bb-X/	.
.	72%1e#X\	.	.	72%1ee#X/	.
.	72%1g\	.	.	72%1gg/	.
.	72%1ee\	.	.	72%1eee/	.
.	72%1cc\	.	.	72%1ccc/	.
.	72%1cc#X\	.	.	72%1ccc#X/	.
.	72%1bb-X\	.	.	72%1bbb-X/	.
.	72%1ee#X\	.	.	72%1eee#X/	.
*	*	*	*	*8va	*
.	72%1gg\	.	.	72%1ggg/	.
.	72%1eee\JJ)	.	.	72%1eeee#/JJ)	.
*	*rscale:1	*	*	*rscale:1	*
*	*	*	*	*X8va	*
4r	8r;>	.	.	8r;>	.
*clefF4	*	*	*	*	*
.	(<8DDD~/ (>8DD	.	.	8b-X~>/ 8bb-X	ff
*	*v	*v	*	*	*
*clefG2	*	*	*	*
=34	=34	=34	=34	=34
!	!	!	!	!LO:HP:a
2.e-X/ 2.f#X 2.b-X)	(4.A\)	(>4.b-X/ (>4.bb-X	2.ee-X\ 2.ff#X	>
.	4.B-X\)	4.cc/) 4.ccc)	.	]
!	!LO:N:n=1:acc=n#	!	!	!LO:HP:a
[4f#X/ [4a [4cc#X	[4Bn\	[<4cc#X/ [4ccc#X	[4ff#X\ [>4aa	> ]
!!LO:LB:g=original	!	!	!	!
=35	=35	=35	=35	=35
2f#/] 2a] 2cc#]	8B\]	2ff#\] 2aa]	8cc#/] 8ccc#]	.
!	!LO:TX:t=P:problem: łuk legato w t. 35 obecny, w t. 34 brak	!	!LO:TX:t=P:problem: łuk legato w t. 35 obecny, w t. 34 brak	!
.	4.c#X\)	.	4.dd#X/ 4.ddd#X)	.
[<2a/ [>2ccn [2ee	4.d#X^\	[<2aa\ [<2cccn	4.ee/ (>4.eee	.
.	[8enX^\	.	[8ee-X/ [>8eee-X)	.
*v	*v	*	*	*
*	*v	*v	*
=36	=36	=36
*M2/4	*M2/4	*
*^	*	*
*	*^	*	*
N[<2a/] N[<2cc]	4e\] 4ee]	4ryy	2ee-/_> 2aa_> 2ccc_ 2eee-_	.
.	N[<4f^\ N[>4ff	8ryy	.	.
*	*	*clefF4	*	*
.	.	8DDD^/ 8DD	.	.
*v	*v	*v	*	*
=37	=37	=37
*M4/4	*M4/4	*
*^	*^	*
*	*^	*	*	*
1DD 1D	8rBB	2f>N]\ 2a>N] 2cc>N] 2ff>N]	2ee-/] 2aa] 2ccc] 2eee-]	8r	.
!	!	!	!LO:TX:a:i:t=lento	!	!
.	(>8C^<\L	.	.	(<8c^>/L	.
.	8A^<\	.	.	8a^>/	.
.	[>8F^<\J)	.	.	[8f^>/J)	.
*	*rscale:4	*	*	*rscale:4	*
!	!	!	!LO:TX:a:i:t=poco a poco\nstring.	!	!
.	(>72%1F\LL]	2ryy	2rddyy	(72%1f\LL]	.
.	72%1F#X\	.	.	72%1f#X\	.
.	72%1e-X\	.	.	72%1ee-X\	.
.	72%1A#X\	.	.	72%1a#X\	.
.	72%1c\	.	.	72%1cc\	<
*	*clefG2	*	*	*	*
.	72%1a\	.	.	72%1aa\	.
.	72%1f\	.	.	72%1ff\	.
.	72%1f#X\	.	.	72%1ff#X\	.
.	72%1ee-X\	.	.	72%1eee-X\	.
.	72%1a#X\	.	.	72%1aa#X\	.
.	72%1cc\	.	.	72%1ccc\	.
*	*	*	*	*8va	*
.	72%1aa\	.	.	72%1aaan\	.
.	72%1ff\	.	.	72%1fffn\	.
.	72%1ff#X\	.	.	72%1fff#X\	.
.	72%1eee-X\	.	.	72%1eeee-X\	.
.	72%1aa#X\	.	.	72%1aaa#X\	.
.	72%1ccc\	.	.	72%1cccc\	.
.	72%1aaa\JJ)	.	.	72%1aaaa\JJ)	[[
*	*rscale:1	*	*	*rscale:1	*
*	*	*	*	*X8va	*
.	8r;>	.	.	8r;>	.
*clefF4	*	*	*	*	*
.	[8GGG~/ [8GG	.	.	8ee-X~\ 8eee-X	ff
*	*v	*v	*	*	*
*	*	*v	*v	*
!!LO:LB:g=original	!	!	!
=38	=38	=38	=38
*	*^	*	*
*	*	*	*^	*
*	*	*	*	*	*^
!	!	!	!	!	!LO:HP:a:t=molto dim. e rit.	!
1B 1d	2..GGG/] 2..GG]	(4.F\ (4.f	(<2ee-X^<\ (>2eee-X	1ff 1aa-	>	.
.	.	4G\ 4g	.	.	.	.
!	!	!	!	!	!LO:DY:b=2	!LO:HP:a
.	.	.	2dd\) 2ddd)	.	pp	>
.	.	4.A-X\) 4.a-X)	.	.	.	.
.	[8GGG/	.	.	.	.	]]
*	*	*	*	*	*v	*v
*	*	*	*v	*v	*
*v	*v	*v	*	*
=39	=39	=39
*M3/4	*M3/4	*
*^	*	*
!	!	!LO:TX:a:i:t=dolce e lento	!
(4G~\ 4c 4e 4g	2.GGG/_	(4een~\ 4gg 4ccc 4eeen	pp
4A~\ 4c 4e 4a	.	4f#X~\ 4cc 4ee 4ff#X	.
4A-X~\ 4c 4e 4a-X	.	4g~\ 4cc 4ee 4gg	.
=40	=40	=40	=40
4G~\ 4c 4e 4g	2GGG/_	4g#X~\ 4cc 4ee 4gg#X	.
4G-X~\ 4c 4e 4g-X	.	4a~\ 4cc 4ee 4aa	.
4G-~::\ 4c-X:: 4e-X:: 4an::	8GGG/L]	4cc#X~::\ 4ee-X:: 4aa:: 4ccc#X::	.
.	[8FFF/J	.	.
=41	=41	=41	=41
4F~::\ 4B-X:: 4d:: 4b-X::	2.FFF/]	4dd~::\ 4bb-X:: 4ddd::	.
4G~\ 4B- 4d 4g	.	4en~>/ 4b-X 4dd 4een	.
4G-X~\ 4B- 4d 4g-X	.	4f~>/ 4b- 4dd 4ff	.
!!LO:LB:g=original	!	!	!
=42	=42	=42	=42
4F~\ 4B-X 4d 4f	[2FFF/	4f#X~\ 4b-X 4dd 4ff#X	.
4F-X~\ 4B- 4d 4f-X	.	4g~\ 4b- 4dd 4gg	.
4F-~::\ 4B--:: 4d-X:: 4gn::	8FFF/L]	4bn~::\ 4dd-X:: 4gg:: 4bbn::	.
.	[8EEE-X/J	.	.
=43	=43	=43	=43
*	*	*^	*
*	*	*	*^	*
*	*	*	*	*^	*
4E-X~::\) 4A-X::\ 4c::\ 4a-X::\	4EEE-/]	4cc~::\) 4aa-X:: 4ccc::	4ryy	4ryy	4ryy	.
2ryy	2ryy	(>4ddn/	(<4f\	[2cc/	[2an\	.
.	.	4ee-X/	4f-X\	.	.	.
*v	*v	*	*	*	*	*
=44	=44	=44	=44	=44	=44
2.ryy	4eenX/	4e-X\	2cc/]	2a\]	.
.	4ff/	4d\	.	.	.
.	[4bn/ [4ff [4bbn	[4d-X\ [4a-X	4ryy	4ryy	.
*	*v	*v	*v	*v	*
=45	=45	=45
*M4/4	*M4/4	*
*	*^	*
*	*	*^	*
1ryy	1a-] 1ff]	2b/] 2bb]	2d-\]	.
.	.	2cc;/ 2ccc)	2c;\)	.
*	*v	*v	*v	*
*	*clefF4	*
=46	=46	=46
*M3/4	*M3/4	*
*^	*^	*
!	!	!LO:TX:a:i:t=sempre più lento	!	!
!	!	!LO:TX:b:i:t=dolce	!	!
((4AAn/	4DDn\	(4d/	4f#X\	pp
4BB/	2D\	4G#X/	[2F#X\	.
4BB-X/	.	4A/	.	.
!!LO:LB:g=original	!	!	!	!
=47	=47	=47	=47	=47
4AAn/	2D\	4A#X/	2F#\]	.
4AA-X/	.	[<4B/	.	.
[<4GG/	[>4D\	4B/_ [4e#X	[4E#X\	.
*v	*v	*	*	*
*	*v	*v	*
=48	=48	=48
*M4/4	*M4/4	*
*^	*^	*
4GG/]))	4D\]	4B/]) 4e#]	4E#\]	.
(<4AA#X/	(>4DD\	(4d/	4f#X\	.
4BB/	2D\	4G#X/	2F#X\	.
4BB-X/	.	4A/	.	.
=49	=49	=49	=49	=49
4AAn/)	2.D\	4A#X/	2.F\	.
2AA-X/)	.	2B/)	.	.
!	!	!	!	!LO:HP:t=dim
4GG~/	4D\	4B~/ 4e#X	4E#X\	>
*	*	*v	*v	*
=50	=50	=50	=50
1DD~ 1AA 1D	4r	1F#X~; 1A 1f#X	.
!LO:TX:a:i:t=attaca	!	!	!
.	2.DDD;\	.	.
*	*	*clefG2	*
*v	*v	*	*
==	==	==
*-	*-	*-
!!!system-decoration: {(s1,s2)}
!!!RDF**kern: > = above
!!!RDF**kern: < = below
!!!RDF**kern: N = linked
!!!ENC: Anastazja Marusiak
!!!END: 2023-10-16
!!!EED: Jan Barakat
!!!EEV: 2023-10-26
